X:1
T:Walsall, CM
T:Walsall, CM
T:Attributed to Henry Purcell (1658-1695)
T:Public Domain Courtesy of the Cyber Hymnal™
C:Attributed to Henry Purcell (1658-1695)
Z:Public Domain
Z:Courtesy of the Cyber Hymnal™
%%score ( 1 2 ) ( 3 4 )
L:1/8
Q:1/4=103
M:4/4
K:Bb
V:1 treble 
V:2 treble 
V:3 bass 
V:4 bass 
V:1
 [DG]2 | [DB]2 ([CA][B,G]) [A,D]2 [Dd]2 | (cB) [CA]2 [B,G]2 ([B,B][CA]) | [DG]2 [C^F]2 (GA) (Bc) | %4
 [^Fd]6 [=Fd]2 | [Fd]2 [Fd]2 [Fc]2 (BA) | [EG]2 [Ec]2 [DA]2 [Dd]2 | %7
 ([B,G][C^F]) ([DG][EA]) [DB]2 [DA]2 | [B,G]6 |] %9
V:2
 x2 | x8 | E2 x6 | x4 D2 G2 | x8 | x6 D2 | x8 | x8 | x6 |] %9
V:3
 [G,,G,]2 | G,2 [G,,D,]2 [D,^F,]2 (G,B,) | (A,G,) [D,^F,]2 [G,,G,]2 ([G,D][A,C]) | %3
 B,2 [A,C]2 ([G,B,][F,A,]) [E,G,]2 | [D,A,]6 [B,,B,]2 | B,2 B,2 [F,A,]2 [B,,F,]2 | %6
 G,2 [C,G,]2 [D,^F,]2 [^F,,D,]2 | ([G,,D,][A,,A,]) G,2 [D,G,]2 [D,^F,]2 | G,6 |] %9
V:4
 x2 | G,2 x2 B,,2 x2 | C,2 x6 | B,2 x6 | x8 | (B,,C,) (D,E,) x4 | (E,D,) x6 | x2 (B,,C,) x4 | %8
 G,6 |] %9

